X:1071
T:The Rack of Silly.
M:6/8
L:1/8
Q:3/8=120
I: :: ::
Z:Jack Campin * www.campin.me.uk * 2009
K:G
d|BdB G2B|cec A2f|g3  a3 |c'aa a2d|BdB G2B|cec A2f|gbg ac'a|bgg g2:|
a|b3  agf|gbg d2B|cec dBd|cAA  A2a|b2b agf|gbg d2B|cec dBd |BGG G2:|

